assets/icons/arrow-up.svg

<svg width="25" height="25" viewBox="0 0 25 25" fill="none" xmlns="http://www.w3.org/2000/svg">
<path d="M11.6667 19.6664V5.66638C11.6667 5.1141 12.1144 4.66638 12.6667 4.66638C13.219 4.66638 13.6667 5.1141 13.6667 5.66638V19.6664C13.6667 20.2187 13.219 20.6664 12.6667 20.6664C12.1144 20.6664 11.6667 20.2187 11.6667 19.6664Z" fill="white"/>
<path d="M12.0358 4.891C12.4286 4.57065 13.0076 4.59324 13.3737 4.95936L20.3737 11.9594L20.4421 12.0355C20.7624 12.4283 20.7398 13.0073 20.3737 13.3734C20.0076 13.7395 19.4286 13.7621 19.0358 13.4418L18.9596 13.3734L12.6667 7.08045L6.3737 13.3734C5.98318 13.7639 5.35017 13.7639 4.95964 13.3734C4.56912 12.9829 4.56912 12.3499 4.95964 11.9594L11.9596 4.95936L12.0358 4.891Z" fill="white"/>
</svg>

<svg xmlns="http://www.w3.org/2000/svg" width="25" height="25" fill="none" viewBox="0 0 25 25"><path fill="#fff" d="M11.667 19.666v-14a1 1 0 1 1 2 0v14a1 1 0 1 1-2 0"/><path fill="#fff" d="M12.036 4.891a1 1 0 0 1 1.338.068l7 7 .068.077a1 1 0 0 1-1.406 1.406l-.076-.069-6.293-6.293-6.293 6.293A1 1 0 1 1 4.96 11.96l7-7z"/></svg>
